svg/black/etn.svg

<svg xmlns="http://www.w3.org/2000/svg" width="32" height="32" viewBox="0 0 32 32">
  <path d="M16,32 C7.163444,32 0,24.836556 0,16 C0,7.163444 7.163444,0 16,0 C24.836556,0 32,7.163444 32,16 C32,24.836556 24.836556,32 16,32 Z M19.87871,13.4688456 L21.70548,14.8510745 L22.85872,15.7232684 L21.57095,16.3808496 L18.981,17.7030485 L19.86947,18.3169815 L21.11247,19.1757621 L19.7697,19.8684158 L11.53158,24.1144928 C12.8999583,24.8684632 14.4374719,25.2628069 16,25.2605597 C21.12006,25.2605597 25.27069,21.112004 25.27069,15.9945027 C25.2739465,13.8240124 24.5116423,11.7218331 23.11777,10.0574713 L19.87871,13.4688456 Z M12.12129,19.0034783 L10.29452,17.6216892 L9.14128,16.7494953 L10.42905,16.091914 L13.019,14.7693853 L12.13053,14.1554523 L10.88753,13.2966717 L12.2303,12.604018 L20.906,8.132004 C19.4352084,7.21245357 17.7348316,6.72599255 16,6.72844578 C10.87994,6.72844578 6.72931,10.8770015 6.72931,15.9945027 C6.72931,18.3736032 7.62669,20.5429285 9.10124,22.1837481 L12.12129,19.0034783 Z M8.53628,22.7786607 C6.903,20.986007 5.90673,18.6042679 5.90673,15.9945027 C5.90673,10.4318341 10.43455,5.90627686 16,5.90627686 C18.0522719,5.90405934 20.055892,6.53075787 21.74079,7.70189905 L22.64279,7.23705147 C20.796,5.83404298 18.49348,5 16,5 C9.9346,5 5,9.93213393 5,15.9945027 C5,18.8626387 6.10495,21.4773513 7.91115,23.4369015 L8.53628,22.7786607 Z M23.68427,9.46145927 C25.18555,11.2228886 26.09327,13.5045777 26.09327,15.9945027 C26.09327,21.5571714 21.56545,26.0827286 16,26.0827286 C14.1156789,26.0848329 12.2688591,25.5564594 10.67105,24.5581209 L9.74705,25.0345127 C11.5825965,26.3093047 13.7648389,26.9914111 16,26.9890055 C22.0654,26.9890055 27,22.0568716 27,15.9945027 C27,13.2458771 25.9858,10.7301149 24.31182,8.80057971 L23.68427,9.46145927 Z M10.84166,16.8990205 L13.47704,18.8923238 L7.52472,25.1603998 L19.35357,19.0624088 L17.21682,17.585957 L21.15834,15.5733033 L18.52296,13.58 L24.47528,7.31192404 L12.64643,13.409915 L14.78318,14.8863668 L10.84166,16.8990205 Z"/>
</svg>

<svg xmlns="http://www.w3.org/2000/svg" width="32" height="32"><path d="M16 32C7.163 32 0 24.837 0 16S7.163 0 16 0s16 7.163 16 16-7.163 16-16 16zm3.879-18.531l1.826 1.382 1.154.872-1.288.658-2.59 1.322.888.614 1.243.859-1.342.692-8.238 4.246A9.232 9.232 0 0 0 16 25.261c5.12 0 9.27-4.149 9.27-9.266a9.225 9.225 0 0 0-2.152-5.938l-3.24 3.412zm-7.758 5.534l-1.826-1.381-1.154-.873 1.288-.657 2.59-1.323-.888-.614-1.243-.858 1.342-.693 8.676-4.472A9.23 9.23 0 0 0 16 6.728c-5.12 0-9.27 4.149-9.27 9.267 0 2.379.897 4.548 2.371 6.189l3.02-3.18zM8.536 22.78a10.044 10.044 0 0 1-2.63-6.784c0-5.563 4.529-10.089 10.094-10.089a10.04 10.04 0 0 1 5.74 1.796l.903-.465A10.947 10.947 0 0 0 16 5C9.935 5 5 9.932 5 15.995a10.95 10.95 0 0 0 2.911 7.442l.625-.658zM23.684 9.46a10.04 10.04 0 0 1 2.41 6.534c0 5.562-4.529 10.088-10.094 10.088a10.036 10.036 0 0 1-5.329-1.525l-.924.477A10.941 10.941 0 0 0 16 26.989c6.065 0 11-4.932 11-10.994 0-2.75-1.014-5.265-2.688-7.194l-.628.66zM10.842 16.9l2.635 1.993-5.952 6.268 11.829-6.098-2.137-1.476 3.941-2.013-2.635-1.993 5.952-6.268-11.829 6.098 2.137 1.476-3.941 2.013z"/></svg>
